!!!OTL: FELDEINWAERTS FLOG EIN VOEGELEIN
!!!ARE: Europa, Mitteleuropa, Deutschland
!!!SCT: B0219
!!!YEM: Copyright 1995, estate of Helmut Schaffrath.
**kern
*ICvox
*Ivox
*M3/4
*k[f#]
*G:
{8d
8d
16e
16f#
=1
4g
4b
16b
16a
8a
=2
4g
8r}
{8a
8b
8cc
=3
8.dd
16ee
8dd
8b
8cc
8dd
=4
4b
8r}
{8d
8g
8b
=5
4dd
8ee
8dd
8cc
8b
=6
4a
8r}
{8dd
8b
8a
=7
8b
8dd
8cc
8b
8a
8g
=8
4a
8r}
{8d
8g
8b
=9
8dd
8ee
4dd
8cc
8dd
=10
4b
8r}
==
!!!AGN: Jahreszeiten - Lied, Herbst
!!!ONB: ESAC (Essen Associative Code) Database: BOEHME
!!!AMT: simple triple
!!!AIN: vox
!!!EED: Helmut Schaffrath
!!!EEV: 1.0
*-
